X:11
T:High-Low
C:Scan Tester
I:abc2nwc
M:4/4
L:1/8
K:G
(3cBA|G2g2G2g2|e3/2g/2 f3/2e/2 d7/2B/2|
c3/2e/2 d3/2c/2 B3/2A/2 G2|A3/2B/2 A3/2G/2 F3/2E/2 D2|
G2g2G2g2|e3/2g/2 f3/2e/2 d7/2B/2|
c3/2e/2 d3/2c/2 B3/2A/2  (3GAB|A2F2G2:|
|:d3/2c/2| (3BdB G2A2F2|G3/2A/2  (3BAG D2G3/2F/2|
E2A2A3/2B/2 A3/2G/2| (3FGA d2d2d3/2c/2|
 (3BdB G2A2F2|G3/2A/2  (3BAG D2G3/2F/2|
E3/2c/2 A3/2G/2 F3/2D/2 E3/2F/2|G2B2G2:|
